img/contacts/phone.svg

<svg width="26" height="26" viewBox="0 0 26 26" fill="none" xmlns="http://www.w3.org/2000/svg">
<g id="icon/phone" clip-path="url(#clip0_248_2060)">
<path id="icon/phone_2" d="M22.8368 23.6885C22.4584 24.4342 21.6789 24.8974 20.8502 24.8067C20.494 24.7677 20.1382 24.72 19.783 24.6636C15.1541 23.9275 10.8761 21.7392 7.56222 18.4122C4.24829 15.0852 2.06855 10.7904 1.3354 6.14328C1.27919 5.78698 1.2317 5.43001 1.19289 5.07268C1.10253 4.24071 1.56391 3.45809 2.30667 3.07814L5.55725 1.41536C6.81529 0.771838 8.33752 1.5225 8.77994 2.8686C9.04827 3.68504 9.36516 4.48843 9.73023 5.2744C9.91316 5.66825 10.1072 6.0556 10.312 6.43607C10.7968 7.33683 10.4698 8.49216 9.54135 8.91583C8.19298 9.53113 7.87184 11.3091 8.91916 12.3605L13.5902 17.0499C14.6375 18.1014 16.4085 17.779 17.0214 16.4253C17.4666 15.4418 18.6736 15.0858 19.632 15.577C19.8643 15.6961 20.0991 15.8112 20.3363 15.9222C21.2349 16.3429 22.1563 16.6998 23.094 16.9925C24.4592 17.4186 25.2342 18.965 24.5851 20.2438L22.8368 23.6885Z" stroke="#2D383F" stroke-linecap="round" stroke-linejoin="round"/>
</g>
<defs>
<clipPath id="clip0_248_2060">
<rect width="26" height="26" fill="white"/>
</clipPath>
</defs>
</svg>

<svg width="26" height="26" fill="none" xmlns="http://www.w3.org/2000/svg"><g clip-path="url(#a)"><path d="M22.837 23.689c-.379.745-1.158 1.208-1.987 1.118a22.162 22.162 0 0 1-13.288-6.395 22.311 22.311 0 0 1-6.37-13.34c-.09-.831.372-1.614 1.115-1.994l3.25-1.663c1.258-.643 2.78.107 3.223 1.454a22.064 22.064 0 0 0 1.532 3.567c.485.9.158 2.056-.77 2.48-1.349.615-1.67 2.393-.623 3.444l4.671 4.69a2.117 2.117 0 0 0 3.431-.625c.446-.983 1.653-1.34 2.611-.848a21.748 21.748 0 0 0 3.462 1.415c1.365.427 2.14 1.973 1.491 3.252l-1.748 3.445Z" stroke="#2D383F" stroke-linecap="round" stroke-linejoin="round"/></g><defs><clipPath id="a"><path fill="#fff" d="M0 0h26v26H0z"/></clipPath></defs></svg>
